X: 5
T: Crowley's
R: reel
M: 4/4
L: 1/8
K: Dmaj
A2Ad B2dB|AD (3FED AD (3FED|AddA BABc|dfeg fedB|
A2Ad B2dB|AD (3FED AD (3FED|A2Ad BABc|dfeg fdde||
f2af g2fg|eA (3cBA eA (3cBA|fefa g2fg|afge fdde|
f2af g2fg|eA (3cBA eA (3cBA|fefa gefg|afge fedB||

